img/humo_icon.svg

<svg width="145" height="54" viewBox="0 0 145 54" fill="none" xmlns="http://www.w3.org/2000/svg">
<rect x="0.5" y="0.799805" width="144" height="53" rx="12" fill="#222C3A"/>
<g clip-path="url(#clip0_1_1493)">
<g clip-path="url(#clip1_1_1493)">
<g clip-path="url(#clip2_1_1493)">
<path d="M51.7618 20.9411C51.7493 19.7817 51.39 18.6133 50.3717 17.9638C49.3534 17.3145 48.0621 17.3434 47.2821 18.3068C47.219 18.3847 47.0836 18.519 47.1233 18.6333C47.1631 18.7477 47.4087 18.7204 47.5116 18.7713C47.5922 18.815 47.6581 18.8818 47.7013 18.9632C47.7442 19.0444 47.7623 19.1368 47.7535 19.2283C47.7535 19.4498 47.7444 21.5633 47.7372 24.4769L40.0814 24.4317C39.9694 23.0063 40.0538 21.5721 40.3326 20.17C40.3939 19.8616 40.4642 19.5549 40.5437 19.2501C40.6303 18.9163 40.8705 18.5063 40.8453 18.1616C40.8444 18.1138 40.8287 18.0675 40.8002 18.0291C40.7315 17.9439 40.6014 17.9585 40.495 17.9856C39.8335 18.1613 39.2233 18.4928 38.7147 18.9527C38.341 19.2985 38.0258 19.7027 37.7812 20.15C36.799 21.917 36.723 24.4208 36.723 24.4208C36.6725 26.0391 36.6093 29.3191 38.3247 32.7245C38.3247 32.7245 39.529 35.112 41.2479 35.7016C41.5874 35.8177 41.6794 35.7397 41.7102 35.7016C41.8437 35.5292 41.5567 35.2336 41.4718 35.1011C41.3159 34.8568 41.1802 34.6001 41.0655 34.3337C40.8333 33.7813 40.6607 33.2052 40.5509 32.6156C40.1672 30.8368 39.9853 29.02 40.0092 27.2001H47.739V34.0525C47.7256 34.2748 47.7751 34.4964 47.8815 34.6918C47.9879 34.8872 48.1468 35.0485 48.3403 35.1574C48.5981 35.2741 48.8744 35.3447 49.1565 35.366C49.6446 35.443 50.1416 35.443 50.6298 35.366C50.9179 35.3207 51.1876 35.195 51.408 35.0031C51.7493 34.6856 51.7546 34.2556 51.7546 33.8221C51.7546 30.3749 51.7855 26.9389 51.7817 23.4954C51.7793 22.6464 51.7728 21.7949 51.7618 20.9411Z" fill="white"/>
<path d="M41.1741 36.5544C38.0557 35.6473 36.8407 32.3182 36.1725 29.4391C36.028 28.8113 35.889 28.1945 35.8114 27.5523C35.5623 25.6165 35.573 23.4884 36.1979 21.6216C35.7228 21.7286 35.5062 22.1405 35.2282 22.4743C34.2134 23.6934 34.1323 25.1175 34.0834 26.5326C33.9995 28.681 34.4684 30.8151 35.4449 32.7281C35.8473 33.4873 36.3382 34.1957 36.9073 34.8382C37.477 35.4711 38.1236 36.0294 38.8322 36.4999C37.6873 36.2175 36.6547 35.5923 35.871 34.7076C35.5506 34.2968 35.2591 33.8638 34.9989 33.4121C34.5041 32.5486 33.8867 31.471 33.5706 30.0286C33.4822 29.6241 33.4226 29.2122 33.2637 29.1958C33.0361 29.1724 32.7761 29.9924 32.722 30.1701C32.5796 30.6159 32.5048 31.0807 32.5 31.549C32.5126 32.6375 33.3234 34.7548 35.2662 36.1917C35.2662 36.1917 36.9634 37.4472 39.8668 37.5433C40.3422 37.547 40.8087 37.4128 41.2102 37.1567C41.4611 36.9753 41.6308 36.6922 41.1741 36.5544Z" fill="white"/>
<path d="M91.669 20.5375C91.6877 19.9668 91.6405 19.3957 91.5281 18.8358C91.5075 18.6749 91.4655 18.5175 91.4034 18.3677C91.2995 18.1143 91.1236 17.8973 90.8978 17.7436C90.73 17.6327 90.5338 17.5728 90.3329 17.5713C90.1919 17.5713 90.0512 17.5822 89.9102 17.5822C89.7152 17.5822 89.522 17.5822 89.3271 17.5822C88.9478 17.5822 88.5688 17.5822 88.1895 17.5912C88.0212 17.5916 87.8546 17.6259 87.6994 17.692C87.5445 17.758 87.4041 17.8545 87.2866 17.9758C86.9977 18.2787 86.7703 18.7105 86.3839 19.6357C86.3188 19.7881 86.2701 19.9188 86.234 20.0077C86.0914 20.3216 84.051 24.761 83.2819 26.0473C83.226 26.1435 83.1014 26.3484 82.9425 26.3413C82.7836 26.3339 82.6608 26.1435 82.6049 26.0473C81.8356 24.761 79.7954 20.3216 79.6509 20.0077C79.6167 19.9188 79.5678 19.7881 79.5028 19.6357C79.1237 18.7105 78.8944 18.2787 78.6 17.9758C78.4825 17.8545 78.3424 17.758 78.1872 17.692C78.0322 17.6259 77.8657 17.5916 77.6972 17.5912C77.3181 17.5766 76.9388 17.5912 76.5598 17.5822H75.9766C75.8357 17.5822 75.6949 17.573 75.5539 17.5713C75.3531 17.5728 75.1568 17.6327 74.9888 17.7436C74.7621 17.8962 74.586 18.1136 74.4832 18.3677C74.4212 18.5175 74.3793 18.6749 74.3588 18.8358C74.2467 19.3957 74.1989 19.9666 74.216 20.5375L73.7719 34.244C73.7773 34.3462 73.7975 34.447 73.8315 34.5433C74.0643 35.2109 74.9147 35.5411 75.5612 35.5502C76.2075 35.5593 77.0057 35.2454 77.2819 34.6431C77.3176 34.5615 77.3448 34.4762 77.3631 34.3892C77.5565 33.4585 77.6683 25.9639 77.7099 22.6982C79.4883 26.3649 80.8822 29.1025 81.5251 30.3181C81.6569 30.5682 81.9367 31.0673 82.4496 31.2361C82.7616 31.3424 83.0999 31.3424 83.412 31.2361C83.9248 31.0673 84.2046 30.5682 84.3345 30.3181C84.9792 29.1096 86.3713 26.3721 88.1517 22.6982C88.1932 25.9639 88.3052 33.4585 88.4983 34.3892C88.5167 34.4762 88.5439 34.5615 88.5797 34.6431C88.8577 35.2509 89.643 35.563 90.3003 35.5502C90.9575 35.5375 91.7953 35.2109 92.0301 34.5433C92.0632 34.4468 92.0832 34.346 92.0897 34.244C91.9584 29.6745 91.8182 25.1057 91.669 20.5375Z" fill="white"/>
<path d="M70.2491 18.1145C69.8788 17.6446 69.2452 17.6283 68.6384 17.6102C68.0625 17.5957 67.3294 17.5757 66.8708 18.0872C66.6719 18.3184 66.5504 18.6067 66.5242 18.9109C66.5133 22.2831 66.503 25.655 66.4935 29.0272C66.5025 29.5756 66.3871 30.119 66.1558 30.6161C65.9247 31.113 65.5838 31.5506 65.1591 31.8954C64.5874 32.3176 63.9144 32.58 63.2091 32.6556C63.0971 32.6556 62.9815 32.6701 62.9815 32.6701H62.8009C62.8009 32.6701 62.6837 32.6701 62.5735 32.6556C61.8679 32.58 61.1951 32.3176 60.6235 31.8954C60.199 31.5504 59.8584 31.1128 59.6277 30.6157C59.3968 30.1188 59.2816 29.5756 59.2908 29.0272L59.2584 18.9109C59.2325 18.6069 59.1118 18.3186 58.9137 18.0872C58.4531 17.5757 57.722 17.5957 57.1441 17.6102C56.5375 17.6283 55.9054 17.6446 55.5352 18.1145C55.3274 18.4118 55.2431 18.779 55.3006 19.1377V29.7256C55.3122 31.0043 55.741 32.2439 56.5212 33.2543C57.5775 34.6457 59.0779 35.2663 59.5401 35.4314C60.2314 35.679 60.9507 35.8386 61.6815 35.9067C62.4905 35.9647 63.3028 35.9647 64.1119 35.9067C64.8426 35.8386 65.5621 35.679 66.2533 35.4314C66.7154 35.2499 68.2161 34.6386 69.2705 33.2543C70.0516 32.2443 70.4813 31.0047 70.4928 29.7256V19.1377C70.5476 18.7777 70.4602 18.4105 70.2491 18.1145Z" fill="white"/>
<path d="M112.06 23.2111C111.551 21.5082 110.513 20.0136 109.098 18.9459C107.493 17.7196 105.532 17.0557 103.516 17.0557C101.499 17.0557 99.5378 17.7196 97.9326 18.9459C96.5179 20.0141 95.4798 21.5086 94.9696 23.2111C93.516 28.0914 95.7025 34.3177 100.928 35.6929C102.625 36.0825 104.388 36.0825 106.085 35.6929C111.328 34.3177 113.513 28.0914 112.06 23.2111ZM108.176 28.6538C107.634 30.9633 106.101 33.447 103.516 33.4741C100.93 33.447 99.4022 30.9633 98.8552 28.6538C98.328 26.4259 98.4254 23.8044 99.6659 21.8178C100.062 21.1465 100.625 20.5906 101.3 20.2042C101.975 19.818 102.738 19.615 103.515 19.615C104.291 19.615 105.054 19.818 105.729 20.2042C106.404 20.5906 106.967 21.1465 107.363 21.8178C108.605 23.8097 108.701 26.4312 108.176 28.6592V28.6538Z" fill="white"/>
</g>
</g>
</g>
<defs>
<clipPath id="clip0_1_1493">
<rect width="80" height="40" fill="white" transform="translate(32.5 7.2998)"/>
</clipPath>
<clipPath id="clip1_1_1493">
<rect width="80" height="40" fill="white" transform="translate(32.5 7.2998)"/>
</clipPath>
<clipPath id="clip2_1_1493">
<rect width="80" height="20.4878" fill="white" transform="translate(32.5 17.0557)"/>
</clipPath>
</defs>
</svg>

<svg xmlns="http://www.w3.org/2000/svg" width="145" height="54" fill="none"><rect width="144" height="53" x=".5" y=".8" fill="#222C3A" rx="12"/><g clip-path="url(#a)"><g clip-path="url(#b)"><g fill="#fff" clip-path="url(#c)"><path d="M51.762 20.941c-.013-1.16-.372-2.328-1.39-2.977-1.019-.65-2.31-.62-3.09.343-.063.078-.198.212-.159.326.04.115.286.087.389.138a.467.467 0 0 1 .242.457c0 .222-.01 2.335-.017 5.249l-7.656-.045a15.591 15.591 0 0 1 .463-5.182c.086-.334.327-.744.301-1.088a.23.23 0 0 0-.045-.133c-.069-.085-.199-.07-.305-.043a4.3 4.3 0 0 0-1.78.967 4.71 4.71 0 0 0-.934 1.197c-.982 1.767-1.058 4.27-1.058 4.27-.05 1.62-.114 4.9 1.602 8.304 0 0 1.204 2.388 2.923 2.978.34.116.431.038.462 0 .134-.173-.153-.468-.238-.6a5.384 5.384 0 0 1-.407-.768 8.406 8.406 0 0 1-.514-1.718 24.179 24.179 0 0 1-.542-5.416h7.73v6.853a1.188 1.188 0 0 0 .601 1.104c.258.117.534.188.816.209.489.077.986.077 1.474 0 .288-.045.558-.171.778-.363.341-.317.347-.747.347-1.18 0-3.448.03-6.884.027-10.328-.003-.849-.01-1.7-.02-2.554Z"/><path d="M41.174 36.554c-3.118-.907-4.333-4.236-5.002-7.115-.144-.628-.283-1.244-.36-1.887-.25-1.936-.239-4.064.386-5.93-.475.107-.692.518-.97.852-1.015 1.22-1.096 2.643-1.145 4.059a12.552 12.552 0 0 0 1.362 6.195c.402.76.893 1.468 1.462 2.11.57.633 1.217 1.191 1.925 1.662a5.818 5.818 0 0 1-2.961-1.792c-.32-.411-.612-.844-.872-1.296-.495-.863-1.112-1.941-1.428-3.383-.089-.405-.148-.817-.307-.833-.228-.024-.488.796-.542.974a4.69 4.69 0 0 0-.222 1.379c.013 1.089.823 3.206 2.766 4.643 0 0 1.697 1.255 4.6 1.351.476.004.943-.13 1.344-.386.251-.182.42-.465-.036-.603ZM91.669 20.538a7.413 7.413 0 0 0-.14-1.702 1.829 1.829 0 0 0-.126-.468 1.395 1.395 0 0 0-.505-.624 1.039 1.039 0 0 0-.565-.173c-.141 0-.282.011-.423.011h-.583c-.38 0-.758 0-1.138.01a1.258 1.258 0 0 0-.902.384c-.29.303-.517.735-.903 1.66-.065.152-.114.283-.15.372-.143.314-2.183 4.753-2.952 6.04-.056.096-.18.3-.34.293-.158-.007-.281-.198-.337-.294-.77-1.286-2.81-5.725-2.954-6.04-.034-.088-.083-.219-.148-.371-.38-.925-.609-1.357-.903-1.66a1.262 1.262 0 0 0-.903-.385c-.379-.014-.758 0-1.137-.009h-.583c-.141 0-.282-.009-.423-.01a1.04 1.04 0 0 0-.565.172c-.227.152-.403.37-.506.624-.062.15-.104.307-.124.468a7.52 7.52 0 0 0-.143 1.702l-.444 13.706c.005.102.025.203.06.3.232.667 1.083.997 1.73 1.006.645.01 1.444-.305 1.72-.907.036-.081.063-.167.081-.254.194-.93.305-8.425.347-11.69 1.778 3.666 3.172 6.403 3.815 7.62.132.25.412.748.925.917.312.106.65.106.962 0 .513-.169.793-.668.922-.918.645-1.208 2.037-3.946 3.818-7.62.041 3.266.153 10.76.346 11.691.019.087.046.172.082.254.278.608 1.063.92 1.72.907.657-.012 1.495-.34 1.73-1.007.033-.096.053-.197.06-.299-.132-4.57-.272-9.138-.421-13.706ZM70.25 18.114c-.371-.47-1.005-.486-1.612-.504-.576-.014-1.309-.034-1.767.477-.2.231-.32.52-.347.824l-.03 10.116a3.626 3.626 0 0 1-1.335 2.868 4 4 0 0 1-1.95.76c-.112 0-.228.015-.228.015h-.18s-.117 0-.227-.014a3.999 3.999 0 0 1-1.95-.76 3.625 3.625 0 0 1-1.333-2.868l-.033-10.117a1.457 1.457 0 0 0-.344-.824c-.46-.511-1.192-.491-1.77-.477-.606.018-1.239.035-1.609.505a1.4 1.4 0 0 0-.234 1.023v10.588a5.861 5.861 0 0 0 1.22 3.528c1.056 1.392 2.557 2.012 3.02 2.177a8.76 8.76 0 0 0 2.14.476c.81.058 1.622.058 2.43 0a8.76 8.76 0 0 0 2.142-.476c.462-.181 1.963-.792 3.017-2.177a5.855 5.855 0 0 0 1.223-3.528V19.138a1.4 1.4 0 0 0-.244-1.024ZM112.06 23.211a8.331 8.331 0 0 0-2.962-4.265 9.194 9.194 0 0 0-11.165 0 8.345 8.345 0 0 0-2.963 4.265c-1.454 4.88.733 11.107 5.958 12.482 1.697.39 3.46.39 5.157 0 5.243-1.375 7.428-7.602 5.975-12.482Zm-3.884 5.443c-.542 2.31-2.075 4.793-4.66 4.82-2.586-.027-4.114-2.51-4.66-4.82-.528-2.228-.43-4.85.81-6.836a4.484 4.484 0 0 1 1.634-1.614 4.459 4.459 0 0 1 6.063 1.614c1.242 1.992 1.338 4.613.813 6.841v-.005Z"/></g></g></g><defs><clipPath id="a"><path fill="#fff" d="M32.5 7.3h80v40h-80z"/></clipPath><clipPath id="b"><path fill="#fff" d="M32.5 7.3h80v40h-80z"/></clipPath><clipPath id="c"><path fill="#fff" d="M32.5 17.056h80v20.488h-80z"/></clipPath></defs></svg>
